icons/desktop/16/svg/text-cursor-16.svg

<svg width="16" height="16" viewBox="0 0 16 16" fill="none" xmlns="http://www.w3.org/2000/svg">
<path d="M6 0C6.78921 0 7.49857 0.334032 8 0.866211C8.50143 0.334032 9.21079 0 10 0H11.25C11.6642 0 12 0.335786 12 0.75C12 1.16421 11.6642 1.5 11.25 1.5H10C9.30921 1.5 8.75 2.05921 8.75 2.75V13.25C8.75 13.9408 9.30921 14.5 10 14.5H11.25C11.6642 14.5 12 14.8358 12 15.25C12 15.6642 11.6642 16 11.25 16H10C9.21054 16 8.50145 15.6653 8 15.1328C7.49855 15.6653 6.78946 16 6 16H4.75C4.33579 16 4 15.6642 4 15.25C4 14.8358 4.33579 14.5 4.75 14.5H6C6.69079 14.5 7.25 13.9408 7.25 13.25V2.75C7.25 2.05921 6.69079 1.5 6 1.5H4.75C4.33579 1.5 4 1.16421 4 0.75C4 0.335786 4.33579 0 4.75 0H6Z" fill="black"/>
</svg>

<!-- This Source Code Form is subject to the terms of the Mozilla Public
   - License, v. 2.0. If a copy of the MPL was not distributed with this
   - file, You can obtain one at http://mozilla.org/MPL/2.0/. -->
<svg xmlns="http://www.w3.org/2000/svg" width="16" height="16" fill="context-fill" fill-opacity="context-fill-opacity" viewBox="0 0 16 16">
    <path d="M6 0c.79 0 1.499.334 2 .866A2.74 2.74 0 0 1 10 0h1.25a.75.75 0 0 1 0 1.5H10c-.69 0-1.25.56-1.25 1.25v10.5c0 .69.56 1.25 1.25 1.25h1.25a.75.75 0 0 1 0 1.5H10c-.79 0-1.499-.335-2-.867A2.74 2.74 0 0 1 6 16H4.75a.75.75 0 0 1 0-1.5H6c.69 0 1.25-.56 1.25-1.25V2.75c0-.69-.56-1.25-1.25-1.25H4.75a.75.75 0 0 1 0-1.5z" />
</svg>
